Sources/FrostedUI/Resources/Icons.xcassets/thumbDown20.imageset/thumb-down-20.svg

<svg width="20" height="20" viewBox="0 0 20 20" fill="none" xmlns="http://www.w3.org/2000/svg" data-fui-icon="true">
  <path
    d="M9.67578 18.458C11.1564 18.4579 12.2962 17.1366 12.0674 15.6689L11.7227 13.458H15.2158C17.2054 13.4579 18.728 11.6857 18.4287 9.71875L17.7314 5.13574C17.4897 3.54817 16.1245 2.37512 14.5186 2.375H3.125C2.25083 2.37518 1.54219 3.08381 1.54199 3.95801V10.208C1.54199 11.0824 2.25071 11.7908 3.125 11.791H5.27539L8.26758 17.5996L9.60059 16.9131L6.375 10.6514V3.875H14.5186C15.3832 3.87512 16.1188 4.50659 16.249 5.36133L16.9463 9.94434C17.1074 11.0034 16.2871 11.9579 15.2158 11.958H10.8467C10.6279 11.9581 10.4197 12.0546 10.2773 12.2207C10.1351 12.387 10.0729 12.6071 10.1064 12.8232L10.8467 12.708V12.709L10.1064 12.8232L10.5859 15.9004C10.672 16.4537 10.2405 16.9579 9.67578 16.958C9.6437 16.9579 9.61529 16.9395 9.60156 16.9131L8.26758 17.5996C8.53946 18.1276 9.08411 18.4579 9.67578 18.458ZM3.125 10.291C3.07912 10.2908 3.04199 10.2539 3.04199 10.208V3.95801C3.04219 3.91226 3.07924 3.87518 3.125 3.875H4.875V10.291H3.125Z"
    fill="currentColor"
  />
</svg>

<svg xmlns="http://www.w3.org/2000/svg" width="20" height="20" fill="none" data-fui-icon="true" viewBox="0 0 20 20"><path fill="currentColor" d="M9.676 18.458a2.42 2.42 0 0 0 2.391-2.79l-.344-2.21h3.493a3.25 3.25 0 0 0 3.213-3.74l-.698-4.582a3.25 3.25 0 0 0-3.212-2.761H3.125c-.874 0-1.583.709-1.583 1.583v6.25c0 .874.709 1.583 1.583 1.583h2.15L8.268 17.6l1.333-.687-3.226-6.262V3.875h8.144c.864 0 1.6.632 1.73 1.486l.697 4.583a1.75 1.75 0 0 1-1.73 2.014h-4.37a.752.752 0 0 0-.74.865l.74-.115v.001l-.74.114.48 3.077a.92.92 0 0 1-.91 1.058.08.08 0 0 1-.074-.045l-1.334.687c.271.528.816.858 1.408.858m-6.551-8.167a.083.083 0 0 1-.083-.083v-6.25c0-.046.037-.083.083-.083h1.75v6.416z"/></svg>
